data/icon.svg

<?xml version="1.0" encoding="UTF-8" standalone="no"?>
<!-- Created with Inkscape (http://www.inkscape.org/) -->

<svg
   xmlns:dc="http://purl.org/dc/elements/1.1/"
   xmlns:cc="http://creativecommons.org/ns#"
   xmlns:rdf="http://www.w3.org/1999/02/22-rdf-syntax-ns#"
   xmlns:svg="http://www.w3.org/2000/svg"
   xmlns="http://www.w3.org/2000/svg"
   xmlns:sodipodi="http://sodipodi.sourceforge.net/DTD/sodipodi-0.dtd"
   xmlns:inkscape="http://www.inkscape.org/namespaces/inkscape"
   width="16"
   height="16"
   viewBox="0 0 16 16"
   id="svg2"
   version="1.1"
   inkscape:version="0.91 r13725"
   sodipodi:docname="toolbar-button.svg"
   inkscape:export-filename="/Users/toby/dev/passff/src/icon.png"
   inkscape:export-xdpi="720"
   inkscape:export-ydpi="720">
  <defs
     id="defs4" />
  <sodipodi:namedview
     id="base"
     pagecolor="#ffffff"
     bordercolor="#666666"
     borderopacity="1.0"
     inkscape:pageopacity="0.0"
     inkscape:pageshadow="2"
     inkscape:zoom="32.000001"
     inkscape:cx="1.8157548"
     inkscape:cy="8.5044328"
     inkscape:document-units="px"
     inkscape:current-layer="layer1"
     showgrid="false"
     units="px"
     inkscape:window-width="1920"
     inkscape:window-height="1052"
     inkscape:window-x="0"
     inkscape:window-y="0"
     inkscape:window-maximized="1"
     fit-margin-top="0"
     fit-margin-left="0"
     fit-margin-right="0"
     fit-margin-bottom="0" />
  <metadata
     id="metadata7">
    <rdf:RDF>
      <cc:Work
         rdf:about="">
        <dc:format>image/svg+xml</dc:format>
        <dc:type
           rdf:resource="http://purl.org/dc/dcmitype/StillImage" />
        <dc:title />
      </cc:Work>
    </rdf:RDF>
  </metadata>
  <g
     inkscape:label="Ebene 1"
     inkscape:groupmode="layer"
     id="layer1"
     transform="translate(-147.0337,-945.83179)">
    <path
       style="fill:#50d367;fill-opacity:1;fill-rule:evenodd;stroke:none;stroke-width:1px;stroke-linecap:butt;stroke-linejoin:miter;stroke-opacity:1"
       d="M 8 0 A 8 8 0 0 0 0 8 A 8 8 0 0 0 4.7734375 15.316406 L 4.7734375 4.3515625 L 7.8359375 4.3515625 C 10.730838 4.3515625 12.177734 5.486492 12.177734 7.7539062 C 12.177734 8.935069 11.773573 9.8418476 10.966797 10.474609 C 10.160021 11.102105 9.0244989 11.416016 7.5585938 11.416016 L 6.2304688 11.416016 L 6.2304688 15.794922 A 8 8 0 0 0 8 16 A 8 8 0 0 0 16 8 A 8 8 0 0 0 8 0 z M 6.2304688 5.59375 L 6.2304688 10.166016 L 7.3925781 10.166016 C 8.5421067 10.166016 9.3758199 9.9804399 9.8925781 9.6113281 C 10.409336 9.2369411 10.666016 8.6389992 10.666016 7.8164062 C 10.666016 7.0729075 10.427114 6.5175578 9.9472656 6.1484375 C 9.4674169 5.7793257 8.7188711 5.59375 7.7011719 5.59375 L 6.2304688 5.59375 z "
       transform="translate(147.0337,945.83179)"
       id="path3390" />
    <g
       style="font-style:normal;font-weight:normal;font-size:12.61047363px;line-height:125%;font-family:sans-serif;letter-spacing:0px;word-spacing:0px;fill:#ffffff;fill-opacity:1;stroke:none;stroke-width:0.25400001;stroke-linecap:butt;stroke-linejoin:miter;stroke-miterlimit:4;stroke-dasharray:none;stroke-opacity:1"
       id="text3365"
       transform="matrix(1.2845521,0,0,1.2845521,-43.837124,-269.4035)" />
  </g>
</svg>

<svg xmlns="http://www.w3.org/2000/svg" width="16" height="16" viewBox="0 0 16 16"><path d="M8 0a8 8 0 0 0-8 8 8 8 0 0 0 4.773 7.316V4.352h3.063c2.895 0 4.342 1.134 4.342 3.402 0 1.18-.404 2.088-1.21 2.72-.808.628-1.944.942-3.41.942H6.23v4.38A8 8 0 0 0 8 16a8 8 0 0 0 8-8 8 8 0 0 0-8-8zM6.23 5.594v4.572h1.163c1.15 0 1.983-.186 2.5-.555.516-.373.773-.97.773-1.794 0-.743-.24-1.298-.72-1.668-.48-.37-1.227-.554-2.245-.554H6.23z" fill="#50d367" fill-rule="evenodd"/></svg>
